icons/_assets/clipboard.svg

<svg width="100" height="100" xmlns="http://www.w3.org/2000/svg"><path d="M68.2148042,71.9384566 C68.3591214,73.1999433 67.4538587,74.3405374 66.1943627,74.4837687 L34.2556447,78.1276254 C34.1677423,78.1381378 34.07984,78.143394 33.9932497,78.143394 C32.8413357,78.143394 31.8481706,77.277436 31.7156612,76.1039906 C31.570032,74.8411899 32.4766066,73.7019098 33.7361026,73.5586785 L65.6735087,69.9135078 C66.9277567,69.7742186 68.0717989,70.67697 68.2148042,71.9384566 L68.2148042,71.9384566 Z M68.2148042,57.6258396 C68.3591214,58.8886403 67.4538587,60.0279204 66.1943627,60.1711517 L34.2556447,63.8163224 C34.1677423,63.8268348 34.07984,63.830777 33.9932497,63.830777 C32.8413357,63.830777 31.8481706,62.964819 31.7156612,61.7913736 C31.570032,60.529887 32.4766066,59.3906068 33.7361026,59.2460615 L65.6735087,55.6022048 C66.9277567,55.4576595 68.0717989,56.364353 68.2148042,57.6258396 L68.2148042,57.6258396 Z M68.2148042,43.3408176 C68.3591214,44.6023042 67.4538587,45.7415844 66.1943627,45.8861297 L34.2556447,49.5299864 C34.1677423,49.5404988 34.07984,49.5444409 33.9932497,49.5444409 C32.8413357,49.5444409 31.8481706,48.679797 31.7156612,47.5063516 C31.570032,46.2435509 32.4766066,45.1042708 33.7361026,44.9610395 L65.6735087,41.3158688 C66.9277567,41.1686953 68.0717989,42.0780169 68.2148042,43.3408176 L68.2148042,43.3408176 Z M76.4080877,85.096025 L23.5919123,91.1235658 L23.5919123,28.8205809 L29.5351588,28.1412178 L29.5351588,31.2082072 C29.5351588,31.8626034 29.8132975,32.4880905 30.3026642,32.9243546 C30.7251201,33.3014865 31.2695897,33.5077922 31.831115,33.5077922 C31.9163933,33.5077922 32.0029837,33.502536 32.090886,33.4933376 L68.429968,29.3462004 C69.5897539,29.2134814 70.4661532,28.2305731 70.4661532,27.0610699 L70.4661532,23.4710892 L76.4080877,22.7930401 L76.4080877,85.096025 Z M45.70525,15.8049298 C45.70525,13.3581714 47.7755465,11.0559583 50.2250037,10.776066 C50.3903125,10.7576693 50.5529974,10.7484709 50.7130584,10.7484709 C51.623569,10.7484709 52.4514252,11.048074 53.0864211,11.614429 C53.8198151,12.2701392 54.2239033,13.2267665 54.2239033,14.3095426 C54.2239033,16.754987 52.1549188,19.0572 49.7054616,19.3370924 C48.6007787,19.461927 47.5866221,19.164952 46.8427323,18.4987294 C46.1080263,17.8430192 45.70525,16.8863918 45.70525,15.8049298 L45.70525,15.8049298 Z M80.2324947,18.5000435 C79.745752,18.0637793 79.0976363,17.8574737 78.4442728,17.9310604 L70.4661532,18.8416961 L70.4661532,17.946829 C70.4661532,16.2871857 69.8088537,14.7865422 68.6149565,13.7195348 C67.4289312,12.6617257 65.8060182,12.1610732 64.1778572,12.3489821 L60.89136,12.7234859 C60.5935417,10.2872399 59.4822989,8.11380356 57.6835813,6.50672216 C55.5463741,4.59478149 52.7164441,3.73145158 49.739573,4.07310421 C44.1085765,4.71698801 39.4786169,9.62627346 39.0600969,15.214922 L35.3026007,15.6446159 C32.0685824,16.0125495 29.5351588,18.8456382 29.5351588,22.0926522 L29.5351588,23.5118247 L21.0361851,24.4829066 C19.8763993,24.6143115 19,25.5985338 19,26.7680371 L19,93.700415 C19,94.3548112 19.2794507,94.9789843 19.7675053,95.4152484 C20.1912733,95.7936944 20.7357429,96 21.2959562,96 C21.3825465,96 21.4691368,95.9947438 21.5570392,95.9842314 L78.9638149,89.4336993 C80.1236007,89.3009804 81,88.3180721 81,87.1485688 L81,20.2161909 C81,19.5604807 80.7205493,18.9363076 80.2324947,18.5000435 L80.2324947,18.5000435 Z" fill="#134B45" fill-rule="evenodd"/></svg>

<svg width="100" height="100" xmlns="http://www.w3.org/2000/svg"><path d="M68.215 71.938a2.298 2.298 0 0 1-2.02 2.546l-31.94 3.644a2.296 2.296 0 0 1-2.54-2.024 2.296 2.296 0 0 1 2.021-2.545l31.938-3.645a2.304 2.304 0 0 1 2.54 2.024zm0-14.312a2.297 2.297 0 0 1-2.02 2.545l-31.94 3.645a2.296 2.296 0 0 1-2.54-2.025 2.298 2.298 0 0 1 2.021-2.545l31.938-3.644a2.299 2.299 0 0 1 2.54 2.024zm0-14.285a2.299 2.299 0 0 1-2.02 2.545l-31.94 3.644a2.295 2.295 0 0 1-2.54-2.024 2.296 2.296 0 0 1 2.021-2.545l31.938-3.645a2.297 2.297 0 0 1 2.54 2.025zm8.193 41.755-52.816 6.028V28.82l5.943-.68v3.067a2.3 2.3 0 0 0 2.556 2.285l36.339-4.147a2.299 2.299 0 0 0 2.036-2.285v-3.59l5.942-.678v62.303zM45.705 15.805c0-2.447 2.07-4.749 4.52-5.029a4.41 4.41 0 0 1 .488-.028c.91 0 1.738.3 2.373.866.734.656 1.138 1.613 1.138 2.696 0 2.445-2.07 4.747-4.519 5.027-1.104.125-2.118-.172-2.862-.838-.735-.656-1.138-1.613-1.138-2.694zM80.232 18.5a2.289 2.289 0 0 0-1.788-.569l-7.978.91v-.894c0-1.66-.657-3.16-1.851-4.227-1.186-1.058-2.809-1.559-4.437-1.371l-3.287.374c-.297-2.436-1.409-4.61-3.207-6.216-2.138-1.912-4.968-2.776-7.944-2.434-5.631.644-10.261 5.553-10.68 11.142l-3.757.43c-3.234.368-5.768 3.2-5.768 6.448v1.419l-8.499.97A2.298 2.298 0 0 0 19 26.769V93.7a2.301 2.301 0 0 0 2.557 2.284l57.407-6.55A2.299 2.299 0 0 0 81 87.149V20.216c0-.656-.28-1.28-.768-1.716z" fill="#134B45" fill-rule="evenodd"/></svg>
